Gurmukhi/0A1A.svg

<svg enable-background="new 0 0 336 592" viewBox="0 0 336 592" xmlns="http://www.w3.org/2000/svg"><path d="m243.067581 285c-.310379 21.484283.678925 42.482178-.717743 63.456055-.545196 8.187256-1.902115 16.19284-5.045593 23.80722-5.687683 13.7771-16.072159 20.539246-30.933121 21.165772-24.578582 1.036255-42.679428-11.058777-57.801361-28.617676-15.727691-18.262238-25.637794-39.624481-30.749977-63.118408-.925728-4.254395-2.886627-5.722718-6.820854-6.247895-11.732376-1.566223-15.43512-8.257415-10.365486-18.971344 5.05516-10.683349 13.230163-18.277313 24.246208-22.608017 10.21402-4.015411 16.797333.274079 17.414764 11.128556.498658 8.765869.498642 8.769256 9.442673 8.77182 19.66304.005646 39.327133-.099121 58.988342.092254 4.44632.043274 6.141312-1.104919 6.049988-5.871826-.28714-14.99173-.284958-29.99591.002762-44.987671.091003-4.74057-1.566071-5.923568-6.026032-5.909149-41.658599.134628-83.318153.009369-124.976303.202835-4.79383.022248-7.424575-1.267257-8.583694-6.029449-.820343-3.370316-2.480057-6.528671-3.636299-9.826813-1.459465-4.163116-.319885-5.854507 4.129852-6.26857 1.323341-.123154 2.663742-.083816 3.99633-.083603 61.488709.009888 122.977616.09256 184.46576-.086426 5.236541-.015243 8.066558 1.472489 9.328216 6.538056.759094 3.047745 2.2836 5.896301 3.282227 8.894958 1.538696 4.620499.15921 6.619065-4.735291 6.683274-8.163849.107116-16.339691.286529-24.491455-.039933-4.929748-.197418-6.670196 1.231324-6.594757 6.439881.294373 20.325073.126816 40.656845.130844 61.486099m-74.424972 73.84967c5.229644 5.720887 11.074752 10.552185 18.629074 12.925141 12.892059 4.049713 22.928055-1.162659 26.808197-14.07721 1.677368-5.582977 2.483948-11.364959 2.535187-17.181793.121582-13.807709-.157135-27.621948.164367-41.42334.116623-5.006317-1.740112-6.148468-6.354156-6.102813-20.46164.202423-40.9263.086029-61.389756.13327-1.945694.004486-3.994262-.386933-6.375885 1.08728 3.383286 23.308289 10.078843 45.399231 25.982972 64.639465z"/></svg>

<svg version="1.1" id="Layer_1" xmlns="http://www.w3.org/2000/svg" xmlns:xlink="http://www.w3.org/1999/xlink" x="0px" y="0px"
	 width="100%" viewBox="0 0 336 592" enable-background="new 0 0 336 592" xml:space="preserve">
<path fill="#000000" opacity="1.000000" stroke="none" 
	d="
M243.067581,285.000000 
	C242.757202,306.484283 243.746506,327.482178 242.349838,348.456055 
	C241.804642,356.643311 240.447723,364.648895 237.304245,372.263275 
	C231.616562,386.040375 221.232086,392.802521 206.371124,393.429047 
	C181.792542,394.465302 163.691696,382.370270 148.569763,364.811371 
	C132.842072,346.549133 122.931969,325.186890 117.819786,301.692963 
	C116.894058,297.438568 114.933159,295.970245 110.998932,295.445068 
	C99.266556,293.878845 95.563812,287.187653 100.633446,276.473724 
	C105.688606,265.790375 113.863609,258.196411 124.879654,253.865707 
	C135.093674,249.850296 141.676987,254.139786 142.294418,264.994263 
	C142.793076,273.760132 142.793060,273.763519 151.737091,273.766083 
	C171.400131,273.771729 191.064224,273.666962 210.725433,273.858337 
	C215.171753,273.901611 216.866745,272.753418 216.775421,267.986511 
	C216.488281,252.994781 216.490463,237.990601 216.778183,222.998840 
	C216.869186,218.258270 215.212112,217.075272 210.752151,217.089691 
	C169.093552,217.224319 127.433998,217.099060 85.775848,217.292526 
	C80.982018,217.314774 78.351273,216.025269 77.192154,211.263077 
	C76.371811,207.892761 74.712097,204.734406 73.555855,201.436264 
	C72.096390,197.273148 73.235970,195.581757 77.685707,195.167694 
	C79.009048,195.044540 80.349449,195.083878 81.682037,195.084091 
	C143.170746,195.093979 204.659653,195.176651 266.147797,194.997665 
	C271.384338,194.982422 274.214355,196.470154 275.476013,201.535721 
	C276.235107,204.583466 277.759613,207.432022 278.758240,210.430679 
	C280.296936,215.051178 278.917450,217.049744 274.022949,217.113953 
	C265.859100,217.221069 257.683258,217.400482 249.531494,217.074020 
	C244.601746,216.876602 242.861298,218.305344 242.936737,223.513901 
	C243.231110,243.838974 243.063553,264.170746 243.067581,285.000000 
M168.642609,358.849670 
	C173.872253,364.570557 179.717361,369.401855 187.271683,371.774811 
	C200.163742,375.824524 210.199738,370.612152 214.079880,357.697601 
	C215.757248,352.114624 216.563828,346.332642 216.615067,340.515808 
	C216.736649,326.708099 216.457932,312.893860 216.779434,299.092468 
	C216.896057,294.086151 215.039322,292.944000 210.425278,292.989655 
	C189.963638,293.192078 169.498978,293.075684 149.035522,293.122925 
	C147.089828,293.127411 145.041260,292.735992 142.659637,294.210205 
	C146.042923,317.518494 152.738480,339.609436 168.642609,358.849670 
z"/>
</svg>
